src/objects/clothing/1F45C.svg

<svg id="emoji" viewBox="0 0 72 72" xmlns="http://www.w3.org/2000/svg">
  <g id="grid">
    <path fill="#b3b3b3" d="M68,4V68H4V4H68m4-4H0V72H72V0Z"/>
    <path fill="none" stroke="#00a5ff" stroke-miterlimit="10" stroke-width="0.1" d="M12.923,10.9583H59.0769A1.9231,1.9231,0,0,1,61,12.8814V59.0352a1.9231,1.9231,0,0,1-1.9231,1.9231H12.9231A1.9231,1.9231,0,0,1,11,59.0352V12.8813A1.923,1.923,0,0,1,12.923,10.9583Z"/>
    <rect x="16" y="4" rx="2.2537" width="40" height="64" fill="none" stroke="#00a5ff" stroke-miterlimit="10" stroke-width="0.1"/>
    <rect x="16" y="4" rx="2.2537" width="40" height="64" transform="translate(72) rotate(90)" fill="none" stroke="#00a5ff" stroke-miterlimit="10" stroke-width="0.1"/>
    <circle cx="36" cy="36" r="29" fill="none" stroke="#00a5ff" stroke-miterlimit="10" stroke-width="0.1"/>
  </g>
  <g id="color">
    <polygon fill="#6A462F" stroke="none" stroke-linecap="round" stroke-linejoin="round" stroke-miterlimit="10" stroke-width="2" points="61,60.9583 11,60.9583 13,28.5 59,28.5"/>
    <rect x="21.9545" y="31.943" width="9.2099" height="9.2099" fill="#D0CFCE" stroke="none" stroke-linecap="round" stroke-linejoin="round" stroke-miterlimit="10" stroke-width="2"/>
    <rect x="42.8843" y="31.943" width="9.2099" height="9.2099" fill="#D0CFCE" stroke="none" stroke-linecap="round" stroke-linejoin="round" stroke-miterlimit="10" stroke-width="2"/>
  </g>
  <g id="hair"/>
  <g id="skin"/>
  <g id="skin-shadow"/>
  <g id="line">
    <polygon fill="none" stroke="#000000" stroke-linecap="round" stroke-linejoin="round" stroke-miterlimit="10" stroke-width="2" points="61,60.9583 11,60.9583 13,28.5 59,28.5"/>
    <rect x="21.9545" y="31.943" width="9.2099" height="9.2099" fill="none" stroke="#000000" stroke-linecap="round" stroke-linejoin="round" stroke-miterlimit="10" stroke-width="2"/>
    <rect x="42.8843" y="31.943" width="9.2099" height="9.2099" fill="none" stroke="#000000" stroke-linecap="round" stroke-linejoin="round" stroke-miterlimit="10" stroke-width="2"/>
    <path fill="none" stroke="#000000" stroke-linecap="round" stroke-linejoin="round" stroke-miterlimit="10" stroke-width="2" d="M24.5192,25.1873c0-8.5667,1.31-15.5115,11.4851-15.5115s11.4851,6.9447,11.4851,15.5115"/>
    <polygon fill="none" stroke="#000000" stroke-linecap="round" stroke-linejoin="round" stroke-miterlimit="10" stroke-width="2" points="61,60.9583 11,60.9583 13,28.5 59,28.5"/>
  </g>
</svg>

<svg viewBox="0 0 72 72" xmlns="http://www.w3.org/2000/svg"><path fill="#b3b3b3" d="M68 4v64H4V4h64m4-4H0v72h72V0z"/><path fill="none" stroke="#00a5ff" stroke-miterlimit="10" stroke-width=".1" d="M12.923 10.958h46.154A1.923 1.923 0 0161 12.881v46.154a1.923 1.923 0 01-1.923 1.923H12.923A1.923 1.923 0 0111 59.035V12.881a1.923 1.923 0 011.923-1.923z"/><rect x="16" y="4" rx="2.254" width="40" height="64" fill="none" stroke="#00a5ff" stroke-miterlimit="10" stroke-width=".1"/><rect x="16" y="4" rx="2.254" width="40" height="64" transform="rotate(90 36 36)" fill="none" stroke="#00a5ff" stroke-miterlimit="10" stroke-width=".1"/><circle cx="36" cy="36" r="29" fill="none" stroke="#00a5ff" stroke-miterlimit="10" stroke-width=".1"/><g stroke-linecap="round" stroke-miterlimit="10" stroke-width="6" stroke="#fff" fill="none" stroke-linejoin="round"><path d="M61 60.958H11L13 28.5h46z"/><path d="M21.954 31.943h9.21v9.21h-9.21zm20.93 0h9.21v9.21h-9.21zM24.52 25.187c0-8.566 1.31-15.511 11.484-15.511S47.49 16.62 47.49 25.187"/><path d="M61 60.958H11L13 28.5h46z"/></g><path fill="#6A462F" d="M61 60.958H11L13 28.5h46z"/><path fill="#D0CFCE" d="M21.954 31.943h9.21v9.21h-9.21zm20.93 0h9.21v9.21h-9.21z"/><g fill="none" stroke="#000" stroke-linecap="round" stroke-linejoin="round" stroke-miterlimit="10" stroke-width="2"><path d="M61 60.958H11L13 28.5h46z"/><path d="M21.954 31.943h9.21v9.21h-9.21zm20.93 0h9.21v9.21h-9.21zM24.52 25.187c0-8.566 1.31-15.511 11.484-15.511S47.49 16.62 47.49 25.187"/><path d="M61 60.958H11L13 28.5h46z"/></g></svg>
